app/client/src/assets/icons/blueprintjs/20px/backlink.svg

<?xml version="1.0" encoding="utf-8"?>
<!-- Generator: Adobe Illustrator 18.0.0, SVG Export Plug-In . SVG Version: 6.00 Build 0)  -->
<svg version="1.1" id="Layer_1" xmlns="http://www.w3.org/2000/svg" xmlns:xlink="http://www.w3.org/1999/xlink" x="0px" y="0px"
	 viewBox="0 0 20 20" enable-background="new 0 0 20 20" xml:space="preserve">
<g id="add_column_right">
	<g>
		<path fill-rule="evenodd" clip-rule="evenodd" d="M18.3871004,19.7902954 L18.2928931,19.7071068 L13.9999999,15.415 L13.9999999,18 C13.9999999,18.5522847 13.5522846,19 12.9999999,19 C12.4477151,19 11.9999999,18.5522847 11.9999999,18 L12.0027878,12.9247615 L12.0027878,12.9247615 L12.02024,12.7992742 L12.02024,12.7992742 L12.049738,12.6878575 L12.049738,12.6878575 L12.0936732,12.5767785 L12.0936732,12.5767785 L12.1459953,12.4792912 L12.1459953,12.4792912 L12.2129276,12.3829777 L12.2129276,12.3829777 L12.2929108,12.2928592 L12.2929108,12.2928592 C12.3282872,12.2574992 12.3656743,12.225313 12.4046933,12.1963346 L12.5159378,12.1246712 L12.5159378,12.1246712 L12.6286639,12.0712255 L12.6286639,12.0712255 L12.7340069,12.0358451 L12.7340069,12.0358451 L12.8833788,12.0067277 L12.8833788,12.0067277 L12.9999999,12 L17.9999999,12 C18.5522846,12 18.9999999,12.4477152 18.9999999,13 C18.9999999,13.5522847 18.5522846,14 17.9999999,14 L15.4149999,14 L19.7071067,18.2928932 C20.097631,18.6834175 20.097631,19.3165825 19.7071067,19.7071068 C19.3466227,20.0675907 18.7793917,20.0953203 18.3871004,19.7902954 Z M7.0358331,9.1357559 L2.58578644,13.5857864 L2.46895369,13.7130012 C1.80690142,14.4987886 1.84584567,15.6742728 2.58578644,16.4142136 C3.3257272,17.1541543 4.50121136,17.1930986 5.28699879,16.5310463 L5.41421356,16.4142136 L9.86451252,11.9651726 C10.2027393,13.2330071 9.90771179,14.6346424 8.97942985,15.6690541 L8.82842712,15.8284271 L6.82842712,17.8284271 C5.26632996,19.3905243 2.73367004,19.3905243 1.17157288,17.8284271 C-0.338454386,16.3183999 -0.388788628,13.9014356 1.02057015,12.3309459 L1.17157288,12.1715729 L3.17157288,10.1715729 C4.21849355,9.1246522 5.70136263,8.77937987 7.0358331,9.1357559 Z M13.7071068,5.29289322 C14.0675907,5.65337718 14.0953203,6.22060824 13.7902954,6.61289944 L13.7071068,6.70710678 L6.70710678,13.7071068 C6.31658249,14.0976311 5.68341751,14.0976311 5.29289322,13.7071068 C4.93240926,13.3466228 4.90467972,12.7793918 5.20970461,12.3871006 L5.29289322,12.2928932 L12.2928932,5.29289322 C12.6834175,4.90236893 13.3165825,4.90236893 13.7071068,5.29289322 Z M17.8284271,1.17157288 C19.3384544,2.68160014 19.3887886,5.09856437 17.9794299,6.66905409 L17.8284271,6.82842712 L15.8284271,8.82842712 C14.7817694,9.87508482 13.2993823,10.2204466 11.9651726,9.86451252 L16.4142136,5.41421356 L16.5310463,5.28699879 C17.1930986,4.50121136 17.1541543,3.3257272 16.4142136,2.58578644 C15.6742728,1.84584567 14.4987886,1.80690142 13.7130012,2.46895369 L13.5857864,2.58578644 L9.1357559,7.0358331 C8.79710468,5.76773418 9.09204276,4.36563115 10.0205701,3.33094591 L10.1715729,3.17157288 L12.1715729,1.17157288 C13.73367,-0.390524292 16.26633,-0.390524292 17.8284271,1.17157288 Z"/>
	</g>
</g>
</svg>

<svg xmlns="http://www.w3.org/2000/svg" xml:space="preserve" viewBox="0 0 20 20"><path fill-rule="evenodd" d="m18.387 19.79-.094-.083L14 15.415V18a1 1 0 0 1-2 0l.003-5.075.017-.126.03-.111.044-.111.052-.098.067-.096.08-.09a1.01 1.01 0 0 1 .112-.097l.11-.071.114-.054.105-.035.15-.03L13 12h5a1 1 0 1 1 0 2h-2.585l4.292 4.293a1 1 0 0 1-1.32 1.497ZM7.036 9.136l-4.45 4.45-.117.127a2 2 0 0 0 2.818 2.818l.127-.117 4.45-4.449a4 4 0 0 1-.885 3.704l-.15.16-2 2A4 4 0 0 1 1.02 12.33l.15-.16 2-2a3.998 3.998 0 0 1 3.865-1.035Zm6.671-3.843a1 1 0 0 1 .083 1.32l-.083.094-7 7a1 1 0 0 1-1.497-1.32l.083-.094 7-7a1 1 0 0 1 1.414 0Zm4.121-4.121a4 4 0 0 1 .151 5.497l-.15.16-2 2a3.998 3.998 0 0 1-3.864 1.036l4.45-4.45.116-.128a2 2 0 0 0-2.818-2.818l-.127.117-4.45 4.45a4 4 0 0 1 .885-3.705l.15-.16 2-2a4 4 0 0 1 5.657 0Z" clip-rule="evenodd"/></svg>
